public/icons/arrowLeftIcon.svg

<svg width="24" height="24" viewBox="0 0 24 24" fill="none" xmlns="http://www.w3.org/2000/svg">
<path d="M9.44641 5.10721C9.51653 5.03757 9.5722 4.95474 9.61021 4.86351C9.64829 4.77211 9.66789 4.67409 9.66789 4.57508C9.66789 4.47607 9.64829 4.37804 9.61021 4.28665C9.57213 4.19525 9.51634 4.1123 9.44604 4.04258L9.44604 4.04257L9.44499 4.04154C9.30479 3.90412 9.11631 3.82715 8.91999 3.82715C8.72368 3.82715 8.53519 3.90412 8.39499 4.04154L8.39498 4.04153L8.39333 4.04318L0.963333 11.4632L0.963272 11.4631L0.958763 11.4679C0.856827 11.5751 0.788426 11.7098 0.761954 11.8554C0.735482 12.001 0.752091 12.1512 0.809743 12.2875L0.80953 12.2876L0.814152 12.2973C0.845243 12.3628 0.885664 12.4234 0.934152 12.4773L0.933901 12.4775L0.943095 12.4867L8.36309 19.9167L8.36302 19.9168L8.36842 19.9219C8.50947 20.055 8.69606 20.1291 8.88999 20.1291C9.08392 20.1291 9.27051 20.055 9.41156 19.9219L9.41161 19.922L9.41604 19.9176C9.48634 19.8479 9.54213 19.7649 9.58021 19.6735C9.61828 19.5821 9.63789 19.4841 9.63789 19.3851C9.63789 19.2861 9.61828 19.188 9.58021 19.0966C9.5422 19.0054 9.48654 18.9226 9.41642 18.853C9.4163 18.8528 9.41617 18.8527 9.41604 18.8526L3.31354 12.7501H22.5C22.6989 12.7501 22.8897 12.6711 23.0303 12.5304C23.171 12.3898 23.25 12.199 23.25 12.0001C23.25 11.8012 23.171 11.6104 23.0303 11.4697C22.8897 11.3291 22.6989 11.2501 22.5 11.2501H3.30354L9.44604 5.10758C9.44616 5.10746 9.44629 5.10734 9.44641 5.10721Z" fill="#F0B270" stroke="#F0B270" stroke-width="0.5"/>
</svg>

<svg width="24" height="24" fill="none" xmlns="http://www.w3.org/2000/svg"><path d="M9.446 5.107a.75.75 0 0 0 0-1.064l-.001-.001a.75.75 0 0 0-1.05 0l-.002.001-7.43 7.42-.004.005a.76.76 0 0 0-.15.82l.005.01a.75.75 0 0 0 .12.18l.01.009 7.42 7.43h-.001l.005.005a.76.76 0 0 0 1.044 0l.004-.004a.75.75 0 0 0 0-1.065L3.314 12.75H22.5a.75.75 0 1 0 0-1.5H3.304l6.142-6.142Z" fill="#F0B270" stroke="#F0B270" stroke-width=".5"/></svg>
